public/library/paribu-icon-light.svg

<svg width="120" height="120" viewBox="0 0 120 120" fill="none" xmlns="http://www.w3.org/2000/svg">
<path opacity="0.2" fill-rule="evenodd" clip-rule="evenodd" d="M6.43583 35.7904C4.71441 32.8088 5.73598 28.9962 8.71757 27.2748C10.4836 26.2552 12.5411 26.1979 14.2829 26.9402C14.511 25.0606 15.5894 23.3074 17.3554 22.2878C20.3371 20.5663 24.1495 21.5879 25.871 24.5695C26.5726 25.7848 26.8186 27.1383 26.6618 28.4318L30.9803 25.9385C31.5766 25.5943 32.3391 25.7986 32.6834 26.3949L36.0081 32.1534C36.3524 32.7498 36.1481 33.5123 35.5518 33.8566L33.7522 34.8955L38.9471 43.8933C39.7504 45.2847 39.2737 47.0639 37.8823 47.8672L20.6066 57.8413C19.2152 58.6446 17.436 58.1679 16.6327 56.7765L11.4378 47.7788L9.63826 48.8177C9.04194 49.162 8.27943 48.9577 7.93514 48.3614L4.61044 42.6028C4.26615 42.0065 4.47047 41.244 5.06679 40.8997L9.38531 38.4064C8.18664 37.8954 7.13751 37.0057 6.43583 35.7904ZM7.39328 42.4358L9.47122 46.0349L20.2685 39.8011L18.1906 36.202L7.39328 42.4358ZM16.9438 34.0425L13.7046 35.9127C11.9157 36.9455 9.62814 36.3326 8.59529 34.5436C7.56244 32.7547 8.17538 30.4671 9.96433 29.4343C11.7533 28.4014 14.0408 29.0144 15.0737 30.8033L16.9438 34.0425ZM20.35 34.9552L22.428 38.5543L33.2253 32.3205L31.1473 28.7214L20.35 34.9552ZM22.3425 30.9256L19.1033 32.7957L17.2331 29.5566C16.2003 27.7676 16.8132 25.4801 18.6022 24.4472C20.3912 23.4143 22.6786 24.0273 23.7115 25.8163C24.7444 27.6052 24.1315 29.8927 22.3425 30.9256ZM21.5153 41.9605L13.5973 46.532L18.7921 55.5297C18.9069 55.7285 19.161 55.7966 19.3598 55.6819L26.9179 51.3182L21.5153 41.9605ZM29.0774 50.0714L23.6747 40.7138L31.5928 36.1423L36.7876 45.14C36.9024 45.3388 36.8343 45.593 36.6355 45.7077L29.0774 50.0714Z" fill="white"/>
<path opacity="0.35" fill-rule="evenodd" clip-rule="evenodd" d="M92.672 18.1744C95.487 15.3595 100.051 15.3595 102.866 18.1744C104.533 19.8417 105.213 22.1226 104.905 24.2902C107.073 23.9824 109.354 24.6621 111.021 26.3294C113.836 29.1445 113.836 33.7083 111.021 36.5232C109.873 37.6706 108.435 38.3504 106.944 38.5624L111.021 42.6395C111.584 43.2025 111.584 44.1153 111.021 44.6783L105.584 50.115C105.021 50.6779 104.108 50.6779 103.545 50.115L101.846 48.416L93.3516 56.9108C92.038 58.2245 89.9082 58.2245 88.5945 56.9108L72.2844 40.6008C70.9708 39.2871 70.9708 37.1573 72.2844 35.8436L80.7793 27.3488L79.0803 25.6499C78.5173 25.0869 78.5173 24.1741 79.0803 23.6111L84.517 18.1744C85.08 17.6114 85.9928 17.6114 86.5558 18.1744L90.6329 22.2516C90.8449 20.7598 91.5246 19.3218 92.672 18.1744ZM85.5364 21.2325L82.1384 24.6305L92.3322 34.8243L95.7302 31.4263L85.5364 21.2325ZM97.7689 29.3876L94.7108 26.3294C93.0218 24.6405 93.0218 21.9021 94.7108 20.2132C96.3997 18.5242 99.1381 18.5242 100.827 20.2132C102.516 21.9022 102.516 24.6405 100.827 26.3294L97.7689 29.3876ZM97.7689 33.4651L94.371 36.863L104.565 47.0568L107.963 43.6589L97.7689 33.4651ZM102.866 34.4845L99.8077 31.4263L102.866 28.3682C104.555 26.6792 107.293 26.6792 108.982 28.3682C110.671 30.0572 110.671 32.7955 108.982 34.4845C107.293 36.1734 104.555 36.1735 102.866 34.4845ZM90.2935 36.863L82.818 29.3876L74.3232 37.8824C74.1355 38.0701 74.1355 38.3743 74.3232 38.562L81.4589 45.6976L90.2935 36.863ZM83.4976 47.7364L92.3322 38.9018L99.8077 46.3772L91.3129 54.8721C91.1252 55.0597 90.821 55.0597 90.6333 54.8721L83.4976 47.7364Z" fill="white"/>
<path opacity="0.8" d="M10.2891 67C16.2891 72.1858 18.7891 72.5 25.2891 67C19.2891 73.5 19.2891 74.5 25.2891 82C18.2891 75.5 15.454 77.2085 10.2891 82C14.798 75.7519 16.4483 72.3234 10.2891 67Z" fill="white"/>
<path opacity="0.8" d="M40.2891 13C46.2891 18.1858 48.7891 18.5 55.2891 13C49.2891 19.5 49.2891 20.5 55.2891 28C48.2891 21.5 45.454 23.2085 40.2891 28C44.798 21.7519 46.4483 18.3234 40.2891 13Z" fill="white"/>
<path opacity="0.8" d="M60.0781 41.7969C64.0594 45.2379 65.7182 45.4464 70.0313 41.7969C66.05 46.1099 66.05 46.7734 70.0312 51.75C65.3865 47.437 63.5053 48.5706 60.0781 51.75C63.07 47.6041 64.165 45.3292 60.0781 41.7969Z" fill="white"/>
<path opacity="0.8" d="M100.289 66C105.287 70.2032 108.088 69.7425 113.086 66C109.832 70.9981 108.232 72.1778 113.086 78.7969C107.316 73.4539 104.695 74.7091 100.289 78.7969C104.136 73.4665 105.544 70.5415 100.289 66Z" fill="white"/>
<path d="M41.6211 73.3339H40.8332C39.5956 73.3339 38.4086 73.8256 37.5334 74.7007C36.6583 75.5759 36.1666 76.7628 36.1666 78.0005V82.6671C36.1666 83.9047 36.6583 85.0917 37.5334 85.9669C38.4086 86.842 39.5956 87.3337 40.8332 87.3337V101.333C40.8332 103.19 41.5707 104.97 42.8834 106.283C44.1962 107.596 45.9766 108.333 47.8331 108.333H71.166C73.0225 108.333 74.803 107.596 76.1157 106.283C77.4284 104.97 78.1659 103.19 78.1659 101.333V87.3337C79.4036 87.3337 80.5905 86.842 81.4657 85.9669C82.3409 85.0917 82.8325 83.9047 82.8325 82.6671V78.0005C82.8325 76.7629 82.3409 75.5759 81.4657 74.7007C80.5905 73.8256 79.4036 73.3339 78.1659 73.3339H77.3781C77.892 72.2503 78.1659 71.0564 78.1659 69.8342C78.1659 67.6683 77.3055 65.5911 75.774 64.0596C74.2473 62.5329 72.1784 61.6731 70.0199 61.6677C66.9415 61.6208 64.1364 63.1286 61.9355 65.5741C61.0169 66.5947 60.2027 67.7758 59.4996 69.0796C58.7965 67.7758 57.9822 66.5947 57.0637 65.5741C54.8628 63.1286 52.0576 61.6208 48.9792 61.6677C46.8207 61.6731 44.7518 62.5329 43.2251 64.0596C41.6936 65.5911 40.8332 67.6683 40.8332 69.8342C40.8332 71.0564 41.1072 72.2503 41.6211 73.3339ZM49.0404 66.3339C50.4559 66.3093 52.0548 66.9845 53.595 68.6959C54.6497 69.8677 55.5914 71.4407 56.3307 73.3339H48.9569C48.0441 73.3227 47.1712 72.9553 46.5249 72.3091C45.8685 71.6527 45.4998 70.7625 45.4998 69.8342C45.4998 68.906 45.8685 68.0158 46.5249 67.3594C47.1813 66.703 48.0715 66.3343 48.9997 66.3343L49.0404 66.3339ZM48.9346 78.0005L48.9997 78.0008L49.0349 78.0005H57.1663V82.6671H40.8332V78.0005H48.9346ZM69.9641 78.0005L69.9994 78.0008L70.0648 78.0005H78.1659V82.6671H61.8329V78.0005H69.9641ZM70.0423 73.3339H62.6685C63.4077 71.4407 64.3494 69.8677 65.4041 68.6959C66.9443 66.9845 68.5432 66.3093 69.9588 66.3339L69.9994 66.3343C70.9276 66.3343 71.8179 66.703 72.4742 67.3594C73.1306 68.0158 73.4993 68.906 73.4993 69.8342C73.4993 70.7625 73.1306 71.6527 72.4742 72.3091C71.828 72.9553 70.955 73.3227 70.0423 73.3339ZM46.1832 102.983C45.7456 102.546 45.4998 101.952 45.4998 101.333V87.3337H57.1663V103.667H47.8331C47.2143 103.667 46.6208 103.421 46.1832 102.983ZM72.8159 102.983C72.3784 103.421 71.7849 103.667 71.166 103.667H61.8329V87.3337H73.4993V101.333C73.4993 101.952 73.2535 102.546 72.8159 102.983Z" fill="white"/>
</svg>

<svg xmlns="http://www.w3.org/2000/svg" width="120" height="120" fill="none" viewBox="0 0 120 120"><path fill="#fff" fill-rule="evenodd" d="M6.436 35.79a6.234 6.234 0 0 1 7.847-8.85 6.234 6.234 0 0 1 12.379 1.492l4.318-2.494a1.247 1.247 0 0 1 1.703.457l3.325 5.758c.344.597.14 1.36-.456 1.704l-1.8 1.038 5.195 8.998a2.91 2.91 0 0 1-1.065 3.974l-17.275 9.974a2.91 2.91 0 0 1-3.974-1.065l-5.195-8.997-1.8 1.039a1.247 1.247 0 0 1-1.703-.457L4.61 42.603a1.247 1.247 0 0 1 .457-1.703l4.318-2.494a6.2 6.2 0 0 1-2.95-2.616m.957 6.646 2.078 3.599L20.27 39.8l-2.078-3.599zm9.55-8.394-3.238 1.87a3.74 3.74 0 1 1 1.369-5.109zm3.407.913 2.078 3.6 10.797-6.234-2.078-3.6zm1.992-4.03-3.239 1.87-1.87-3.238a3.74 3.74 0 1 1 5.11 1.369m-.827 11.036-7.918 4.571 5.195 8.998a.416.416 0 0 0 .568.152l7.558-4.364zm7.562 8.11-5.402-9.357 7.918-4.572 5.195 8.998a.416.416 0 0 1-.152.568z" clip-rule="evenodd" opacity=".2"/><path fill="#fff" fill-rule="evenodd" d="M92.672 18.174a7.208 7.208 0 0 1 12.233 6.116 7.208 7.208 0 0 1 2.039 14.272l4.077 4.078a1.44 1.44 0 0 1 0 2.038l-5.437 5.437a1.44 1.44 0 0 1-2.039 0l-1.699-1.699-8.494 8.495a3.364 3.364 0 0 1-4.758 0L72.285 40.6a3.364 3.364 0 0 1 0-4.757l8.495-8.495-1.699-1.7a1.44 1.44 0 0 1 0-2.038l5.437-5.437a1.44 1.44 0 0 1 2.039 0l4.077 4.078a7.18 7.18 0 0 1 2.039-4.078m-7.136 3.059-3.398 3.398 10.194 10.193 3.398-3.398zm12.233 8.155-3.058-3.059a4.325 4.325 0 1 1 6.116 0zm0 4.077-3.398 3.398 10.194 10.194 3.398-3.398zm5.097 1.02-3.058-3.059 3.058-3.058a4.324 4.324 0 1 1 0 6.116m-12.573 2.378-7.475-7.475-8.495 8.494a.48.48 0 0 0 0 .68l7.136 7.136zm-6.795 10.873 8.834-8.834 7.476 7.475-8.495 8.495a.48.48 0 0 1-.68 0z" clip-rule="evenodd" opacity=".35"/><path fill="#fff" d="M10.29 67c6 5.186 8.5 5.5 15 0-6 6.5-6 7.5 0 15-7-6.5-9.836-4.791-15 0 4.508-6.248 6.158-9.677 0-15M40.29 13c6 5.186 8.5 5.5 15 0-6 6.5-6 7.5 0 15-7-6.5-9.836-4.791-15 0 4.508-6.248 6.158-9.677 0-15M60.078 41.797c3.981 3.44 5.64 3.65 9.953 0-3.981 4.313-3.981 4.976 0 9.953-4.645-4.313-6.526-3.18-9.953 0 2.992-4.146 4.087-6.42 0-9.953M100.289 66c4.998 4.203 7.799 3.743 12.797 0-3.254 4.998-4.854 6.178 0 12.797-5.77-5.343-8.391-4.088-12.797 0 3.847-5.33 5.255-8.255 0-12.797" opacity=".8"/><path fill="#fff" d="M41.621 73.334h-.788A4.667 4.667 0 0 0 36.167 78v4.667a4.667 4.667 0 0 0 4.666 4.667v13.999a7 7 0 0 0 7 7h23.333a7 7 0 0 0 7-7v-14a4.667 4.667 0 0 0 4.666-4.666v-4.666a4.667 4.667 0 0 0-4.666-4.667h-.788a8.166 8.166 0 0 0-7.358-11.666c-3.078-.047-5.884 1.46-8.084 3.906-.92 1.02-1.733 2.202-2.436 3.506-.703-1.304-1.518-2.485-2.436-3.506-2.201-2.445-5.006-3.953-8.085-3.906a8.166 8.166 0 0 0-7.358 11.666m7.42-7c1.415-.025 3.014.65 4.554 2.362 1.055 1.172 1.996 2.745 2.736 4.638h-7.374a3.5 3.5 0 0 1 .043-7zM48.934 78h8.231v4.666H40.833v-4.666zm21.03 0h8.2v4.666H61.834v-4.666zm.077-4.667H62.67c.739-1.893 1.68-3.466 2.735-4.638 1.54-1.712 3.14-2.387 4.555-2.362h.04a3.5 3.5 0 0 1 .043 7m-23.859 29.649a2.33 2.33 0 0 1-.683-1.65v-14h11.666v16.334h-9.333a2.33 2.33 0 0 1-1.65-.684m26.633 0a2.33 2.33 0 0 1-1.65.684h-9.333V87.334h11.666v13.999c0 .619-.245 1.213-.683 1.65"/></svg>
